X:9
T:Ashley's Flag. THO5.009
M:C|
L:1/8
B:Thompson's Complete Collection of 200 Favourite Dances Vol.5
F:https://www.libraryofdance.org/manuals/1780c-Thompson-Compleat-5.pdf
Z:vmp. Peter Dunk 2024
Q:1/4=140
K:Bb
d>e|f2 d>B e2 c>A|B2B2 B3F|G2B2 F2B2|cdec BAGF|
f2 d>B e2 c>A|B2b2 b2 g>a|bagf =efge|f2f2- f2:|
|:d>e|fedc B_agf| e2 c2- c2 c>d|edcB Agfe|d2B2- B3F|
G2b2 F2a2|E2g2 D2f2|edcB AcFA|B2B2- B2:|
W:
W:Cast off two Couples, and up again ./.
W:Lead down two Couples, Up again and cast off ./:
W:Turn opposite sides :/. Lead outsides :/:

